X: 91
T: Marsch efter Blinda Petter
T: (SvL Västmanland nr. 91)
B: Svenska Låtar Västmanland nr 91
S: efter Arvid Petterson
S: efter Blinda Petter
R: Gånglåt
O: Guldsmedshyttan, Västmanland
Q: 104
M: 2/4
L: 1/16
K: C
gag^f gabc' | g4 e2eg | f2d2 d2cd | e2cB cdef | 
gag^f gabc' | g4 e2eg | f2fd B2G2 |1 [cE]4 z4 :|2 [cE]4 z2(eg |:
f2)d2 d2(df | e2)c2 c2(Bc) | d2G2 [GG,]2[GG,]2 | cGce g2(eg |
f2)d2 d2(df | e2)c2 c2(Bc) | d2ef G2AB |1 [cE]4 z2 (eg :|2 [cE]4 z4 |]

